img/benefit-icons/img8.svg

<svg width="35" height="35" viewBox="0 0 35 35" fill="none" xmlns="http://www.w3.org/2000/svg">
<g clip-path="url(#clip0_198_18578)">
<path d="M15.7497 2.33331V1.75C15.7497 0.783535 14.9661 0 13.9997 0H6.99966C6.03319 0 5.24966 0.783535 5.24966 1.75V2.33331C5.25273 3.07228 5.71963 3.72969 6.41635 3.97599V17.5C6.42455 22.3625 9.44562 26.7107 13.9997 28.4147V30.9166C13.0331 30.9166 12.2497 31.7002 12.2497 32.6666V33.2499C12.2497 34.2164 13.0332 34.9999 13.9997 34.9999H22.1663C23.1328 34.9999 23.9163 34.2165 23.9163 33.2499V32.6666C23.9163 31.7002 23.1328 30.9166 22.1663 30.9166V28.4147C27.452 26.4426 30.567 20.9688 29.5632 15.4173C28.5593 9.86583 23.7245 5.82955 18.083 5.83331C16.8952 5.83372 15.7146 6.01767 14.583 6.37875V3.97599C15.2797 3.72969 15.7466 3.07228 15.7497 2.33331ZM6.41635 1.75C6.41635 1.42782 6.67755 1.16669 6.99966 1.16669H13.9997C14.3218 1.16669 14.583 1.42789 14.583 1.75V2.33331C14.583 2.65549 14.3218 2.91662 13.9997 2.91662H6.99966C6.67748 2.91662 6.41635 2.65542 6.41635 2.33331V1.75ZM22.7497 32.6667V33.25C22.7497 33.5722 22.4885 33.8333 22.1663 33.8333H13.9997C13.6775 33.8333 13.4163 33.5722 13.4163 33.25V32.6667C13.4163 32.3445 13.6775 32.0834 13.9997 32.0834H22.1663C22.4885 32.0833 22.7497 32.3445 22.7497 32.6667ZM20.9997 30.9167H15.1663V28.7828C17.0771 29.2947 19.0889 29.2947 20.9997 28.7828V30.9167ZM28.583 17.5C28.583 23.299 23.882 28 18.083 28C12.284 28 7.58297 23.299 7.58297 17.5V4.08331H13.4163V6.825C12.1916 7.35321 11.0686 8.09156 10.0983 9.00669C9.94273 9.14908 9.87615 9.36428 9.92414 9.56956C9.97206 9.77484 10.1271 9.93836 10.3296 9.99708C10.5321 10.0559 10.7505 10.0008 10.9009 9.85305C12.8438 8.02149 15.4128 7.00096 18.0829 6.99993C23.8792 7.00677 28.5763 11.7038 28.583 17.5Z" fill="#0383FD"/>
<path d="M11.9726 11.6294C11.5734 11.6456 11.2107 11.8659 11.0124 12.2127L9.96242 14.0303C9.76185 14.3756 9.75283 14.7997 9.9385 15.1533L10.4792 16.1887V18.8137L9.9385 19.8492C9.75283 20.2028 9.76185 20.6272 9.96242 20.9726L11.0124 22.7897C11.2107 23.1365 11.5734 23.3568 11.9726 23.373L13.1422 23.4237L15.4172 24.7368L16.0448 25.7233C16.2586 26.06 16.6301 26.2637 17.0289 26.2628H19.1289C19.5279 26.2637 19.8995 26.0597 20.113 25.7227L20.7407 24.7368L23.0187 23.4237L24.1882 23.373C24.5874 23.3568 24.9501 23.1364 25.1484 22.7897L26.1984 20.972C26.399 20.6267 26.408 20.2026 26.2223 19.8491L25.6816 18.8136V16.1886L26.2223 15.1532C26.408 14.7995 26.399 14.3752 26.1984 14.0297L25.1484 12.2127C24.9501 11.8659 24.5874 11.6456 24.1882 11.6294L23.0187 11.5786L20.746 10.2667L20.1183 9.28032C19.9045 8.94358 19.5331 8.73987 19.1342 8.74076H17.033C16.634 8.73994 16.2625 8.94385 16.0489 9.28093L15.4201 10.2667L13.1451 11.5799L11.9726 11.6294ZM13.6006 12.6583L16.1265 11.2C16.2077 11.1529 16.2764 11.0871 16.3271 11.0081L17.0317 9.89979H19.1317L19.8364 11.0081C19.887 11.0871 19.9559 11.1529 20.037 11.2L22.5628 12.6583C22.6438 12.7055 22.7352 12.7321 22.8288 12.7359L24.1407 12.7942L25.1907 14.6107L24.584 15.7733C24.5407 15.8568 24.5182 15.9494 24.5181 16.0434V18.9583C24.5182 19.0523 24.5408 19.1449 24.584 19.2284L25.1907 20.3904L24.1407 22.2074L22.8288 22.2657C22.7352 22.2695 22.6438 22.2961 22.5628 22.3433L20.037 23.8016C19.9558 23.8487 19.887 23.9146 19.8364 23.9935L19.1317 25.1018H17.0329L16.3283 23.9935C16.2776 23.9145 16.2088 23.8487 16.1276 23.8016L13.6018 22.3433C13.5208 22.2961 13.4295 22.2695 13.3358 22.2657L12.0239 22.2074L10.9739 20.3909L11.5806 19.2283C11.6239 19.1448 11.6465 19.0522 11.6465 18.9582V16.0415C11.6465 15.9475 11.6238 15.8549 11.5806 15.7715L10.9739 14.6095L12.0239 12.7924L13.3358 12.7341C13.4289 12.7308 13.5198 12.7047 13.6006 12.6583Z" fill="#0383FD"/>
<path d="M18.083 22.7442C20.9785 22.741 23.3235 20.3917 23.3213 17.4962C23.3192 14.6007 20.9707 12.2549 18.0752 12.2559C15.1797 12.257 12.833 14.6045 12.833 17.5001C12.8378 20.3965 15.1864 22.7426 18.083 22.7442ZM18.083 13.4225C20.3342 13.4257 22.1568 15.2527 22.1547 17.5039C22.1525 19.7551 20.3264 21.5786 18.0752 21.5775C15.824 21.5764 13.9997 19.7512 13.9997 17.5C14.0029 15.2472 15.8301 13.4225 18.083 13.4225Z" fill="#0383FD"/>
<path d="M18.083 19.25C19.0494 19.25 19.833 18.4665 19.833 17.5C19.833 16.5335 19.0494 15.75 18.083 15.75C17.1164 15.75 16.333 16.5335 16.333 17.5C16.333 18.4665 17.1165 19.25 18.083 19.25ZM18.083 16.9167C18.4051 16.9167 18.6663 17.1779 18.6663 17.5C18.6663 17.8222 18.4051 18.0833 18.083 18.0833C17.7608 18.0833 17.4997 17.8221 17.4997 17.5C17.4997 17.1778 17.7608 16.9167 18.083 16.9167Z" fill="#0383FD"/>
</g>
<defs>
<clipPath id="clip0_198_18578">
<rect width="35" height="35" fill="white"/>
</clipPath>
</defs>
</svg>

<svg width="35" height="35" fill="none" xmlns="http://www.w3.org/2000/svg"><g clip-path="url(#clip0_198_18578)" fill="#0383FD"><path d="M15.75 2.333V1.75A1.75 1.75 0 0014 0H7a1.75 1.75 0 00-1.75 1.75v.583a1.75 1.75 0 001.166 1.643V17.5A11.675 11.675 0 0014 28.415v2.502a1.75 1.75 0 00-1.75 1.75v.583c0 .966.783 1.75 1.75 1.75h8.166a1.75 1.75 0 001.75-1.75v-.583a1.75 1.75 0 00-1.75-1.75v-2.502a11.658 11.658 0 00-4.083-22.582c-1.188 0-2.368.185-3.5.546V3.976a1.75 1.75 0 001.167-1.643zM6.416 1.75c0-.322.262-.583.584-.583h7c.322 0 .583.26.583.583v.583a.583.583 0 01-.583.584H7a.583.583 0 01-.584-.584V1.75zM22.75 32.667v.583a.583.583 0 01-.584.583H14a.583.583 0 01-.584-.583v-.583c0-.323.261-.584.584-.584h8.166c.322 0 .584.261.584.584zM21 30.917h-5.834v-2.134c1.911.512 3.923.512 5.834 0v2.134zM28.583 17.5c0 5.799-4.701 10.5-10.5 10.5s-10.5-4.701-10.5-10.5V4.083h5.833v2.742a11.438 11.438 0 00-3.318 2.182.583.583 0 10.803.846A10.476 10.476 0 0118.083 7c5.796.007 10.493 4.704 10.5 10.5z"/><path d="M11.973 11.63a1.16 1.16 0 00-.96.583l-1.05 1.817a1.16 1.16 0 00-.024 1.123l.54 1.036v2.625l-.54 1.035c-.186.354-.177.778.023 1.124l1.05 1.817c.199.347.561.567.96.583l1.17.05 2.275 1.314.628.986c.214.337.585.54.984.54h2.1c.399 0 .77-.203.984-.54l.628-.986 2.278-1.313 1.17-.051c.398-.016.761-.237.96-.583l1.05-1.818c.2-.345.209-.77.023-1.123l-.54-1.035v-2.625l.54-1.036a1.162 1.162 0 00-.024-1.123l-1.05-1.817a1.16 1.16 0 00-.96-.584l-1.17-.05-2.272-1.312-.628-.987a1.163 1.163 0 00-.984-.54h-2.101c-.399 0-.77.204-.984.54l-.629.987-2.275 1.313-1.172.05zm1.628 1.028l2.525-1.458a.59.59 0 00.201-.192l.705-1.108h2.1l.704 1.108a.59.59 0 00.201.192l2.526 1.458a.575.575 0 00.266.078l1.312.058 1.05 1.817-.607 1.162a.588.588 0 00-.066.27v2.915a.59.59 0 00.066.27l.607 1.162-1.05 1.817-1.312.059a.575.575 0 00-.266.077l-2.526 1.459a.59.59 0 00-.2.192l-.705 1.108h-2.1l-.704-1.108a.59.59 0 00-.2-.192l-2.526-1.459a.574.574 0 00-.266-.077l-1.312-.059-1.05-1.816.607-1.163a.587.587 0 00.066-.27v-2.916a.587.587 0 00-.066-.27l-.607-1.162 1.05-1.818 1.312-.058a.573.573 0 00.265-.076z"/><path d="M18.083 22.744a5.244 5.244 0 10-5.25-5.244 5.253 5.253 0 005.25 5.244zm0-9.322a4.078 4.078 0 11-.012 8.156 4.078 4.078 0 01.012-8.155z"/><path d="M18.083 19.25a1.75 1.75 0 100-3.5 1.75 1.75 0 000 3.5zm0-2.333a.583.583 0 110 1.166.583.583 0 010-1.166z"/></g><defs><clipPath id="clip0_198_18578"><path fill="#fff" d="M0 0h35v35H0z"/></clipPath></defs></svg>
